brandFactory_export/1.Light/Perdida o robo de celulares_1Light.svg

<?xml version="1.0" encoding="UTF-8"?>
<svg width="24px" height="24px" viewBox="0 0 24 24" version="1.1" xmlns="http://www.w3.org/2000/svg" xmlns:xlink="http://www.w3.org/1999/xlink">
    <title>1.Light/Perdida o robo de celulares_1Light</title>
    <g id="Symbols" stroke="none" stroke-width="1" fill="none" fill-rule="evenodd">
        <g id="1.Light/Perdida-o-robo-de-celulares_1Light" fill="#5CB615" fill-rule="nonzero">
            <path d="M18.4084034,7.83373366e-13 C19.6453782,7.83373366e-13 20.5361345,0.292436975 21.1344538,0.894117647 C21.7327731,1.49579832 22.0218487,2.38319328 22.0218487,3.61344538 L22.0218487,20 C22.0218487,21.2436975 21.7294118,22.1378151 21.1277311,22.7361345 C20.5327731,23.3277311 19.6420168,23.6134454 18.4084034,23.6134454 L9.88739496,23.6134454 C8.65378151,23.6134454 7.76302521,23.3277311 7.16806723,22.7361345 C6.56638655,22.1411765 6.27394958,21.2436975 6.27394958,20 L6.27327923,15.0867699 C4.65713669,15.0315863 3.39327206,14.5735767 2.5092437,13.7210084 C1.52773109,12.7764706 1.0302521,11.3613445 1.0302521,9.51260504 C1.0302521,7.66386555 1.52773109,6.2487395 2.5092437,5.30420168 C3.39271226,4.45217328 4.65847693,3.99420395 6.27077984,3.93854551 L6.27058824,3.61344538 C6.27058824,2.40336134 6.56302521,1.51932773 7.16134454,0.914285714 C7.77310924,0.299159664 8.66386555,7.83373366e-13 9.88739496,7.83373366e-13 L18.4084034,7.83373366e-13 Z M18.4084034,0.672268908 L9.88739496,0.672268908 C8.85210084,0.672268908 8.11932773,0.904201681 7.64201681,1.38487395 C7.17142857,1.85882353 6.94285714,2.58823529 6.94285714,3.61344538 L6.94330752,3.93833756 C8.55850889,3.99305342 9.82634546,4.45110245 10.7109244,5.30420168 C11.692437,6.2487395 12.189916,7.66386555 12.189916,9.51260504 C12.189916,11.3613445 11.692437,12.7764706 10.7109244,13.7210084 C9.82690063,14.5735722 8.56010017,15.0315816 6.94634828,15.086769 L6.94621849,20 C6.94621849,22.0907563 7.8,22.9411765 9.88739496,22.9411765 L18.4084034,22.9411765 C20.4991597,22.9411765 21.3495798,22.0907563 21.3495798,20 L21.3495798,3.61344538 C21.3495798,2.56806723 21.1243697,1.83193277 20.6605042,1.36806723 C20.1966387,0.904201681 19.4571429,0.672268908 18.4084034,0.672268908 Z M14.1529412,18.8033613 C14.7579832,18.8033613 15.1512605,19.1226891 15.1512605,19.805042 C15.1512605,20.1344538 15.0605042,20.3764706 14.8991597,20.5411765 C14.7243697,20.7193277 14.4655462,20.8067227 14.1529412,20.8067227 C13.8403361,20.8067227 13.5815126,20.7193277 13.4067227,20.5411765 C13.2453782,20.3764706 13.1546218,20.1344538 13.1546218,19.805042 C13.1546218,19.1226891 13.5478992,18.8033613 14.1529412,18.8033613 Z M6.61008403,4.60504202 C5.01344538,4.60504202 3.78991597,5.00168067 2.97310924,5.78823529 C2.12941176,6.60168067 1.69915966,7.85546218 1.69915966,9.51260504 C1.69915966,11.1697479 2.12605042,12.4235294 2.9697479,13.2369748 C3.78319328,14.0235294 5.00672269,14.4201681 6.60672269,14.4201681 C8.20672269,14.4201681 9.42689076,14.0235294 10.2403361,13.2369748 C11.0840336,12.4235294 11.5109244,11.1697479 11.5109244,9.51260504 C11.5109244,7.85546218 11.0840336,6.60168067 10.2403361,5.78823529 C9.4302521,5.00168067 8.20672269,4.60504202 6.61008403,4.60504202 Z M6.61008403,12.3798319 C6.83656719,12.3798319 7.02016807,12.5634328 7.02016807,12.789916 C7.02016807,13.0163991 6.83656719,13.2 6.61008403,13.2 C6.38360088,13.2 6.2,13.0163991 6.2,12.789916 C6.2,12.5634328 6.38360088,12.3798319 6.61008403,12.3798319 Z M6.61344538,5.89915966 C7.4,5.89915966 8.06890756,6.17478992 8.49243697,6.67563025 C8.85882353,7.10588235 9.00672269,7.66722689 8.9092437,8.25546218 C8.77815126,9.05210084 8.21344538,9.54957983 7.97142857,9.76470588 C7.87394958,9.85210084 7.76638655,9.93613445 7.66218487,10.0235294 C7.35966387,10.2689076 6.94621849,10.6084034 6.94621849,10.8235294 L6.94621849,11.4789916 C6.94621849,11.6638655 6.79495798,11.8151261 6.61008403,11.8151261 C6.42521008,11.8151261 6.27394958,11.6638655 6.27394958,11.4789916 L6.27394958,10.8235294 C6.27394958,10.2857143 6.78487395,9.86890756 7.23865546,9.49915966 C7.34285714,9.41512605 7.44033613,9.33445378 7.52773109,9.2605042 C7.73277311,9.08235294 8.15630252,8.70588235 8.24705882,8.14789916 C8.31092437,7.7512605 8.22016807,7.39495798 7.98151261,7.11260504 C7.68571429,6.76302521 7.19831933,6.57142857 6.61344538,6.57142857 C6.11596639,6.57142857 5.69915966,6.73277311 5.41008403,7.04201681 C5.13445378,7.33109244 4.98319328,7.74453782 4.98319328,8.20168067 L4.98319328,8.34285714 C4.98319328,8.52773109 4.83193277,8.6789916 4.64705882,8.6789916 C4.46218487,8.6789916 4.31092437,8.52773109 4.31092437,8.34285714 L4.31092437,8.20168067 C4.31092437,7.57310924 4.52605042,6.99495798 4.91932773,6.58151261 C5.3394958,6.13445378 5.92436975,5.89915966 6.61344538,5.89915966 Z" id="Perdida-o-robo-de-celulares_1Light"></path>
        </g>
    </g>
</svg>

<svg width="24" height="24" viewBox="0 0 24 24" xmlns="http://www.w3.org/2000/svg"><path d="M18.408 0c1.237 0 2.128.292 2.726.894.599.602.888 1.49.888 2.72V20c0 1.244-.293 2.138-.894 2.736-.595.592-1.486.877-2.72.877h-8.52c-1.234 0-2.125-.285-2.72-.877-.602-.595-.894-1.492-.894-2.736v-4.913c-1.617-.055-2.88-.513-3.765-1.366-.981-.945-1.479-2.36-1.479-4.208 0-1.85.498-3.264 1.48-4.209.883-.852 2.148-1.31 3.76-1.365v-.326c0-1.21.293-2.094.891-2.699C7.773.3 8.664 0 9.887 0h8.521zm0 .672h-8.52c-1.036 0-1.769.232-2.246.713-.47.474-.7 1.203-.7 2.228l.001.325c1.616.055 2.883.513 3.768 1.366.981.945 1.479 2.36 1.479 4.209 0 1.848-.498 3.263-1.48 4.208-.883.853-2.15 1.31-3.764 1.366V20c0 2.09.854 2.941 2.941 2.941h8.521c2.091 0 2.942-.85 2.942-2.941V3.613c0-1.045-.226-1.781-.69-2.245-.463-.464-1.203-.696-2.252-.696zm-4.255 18.131c.605 0 .998.32.998 1.002 0 .33-.09.571-.252.736-.175.178-.433.266-.746.266s-.571-.088-.746-.266c-.162-.165-.252-.407-.252-.736 0-.682.393-1.002.998-1.002zM6.61 4.605c-1.597 0-2.82.397-3.637 1.183C2.13 6.602 1.7 7.855 1.7 9.513c0 1.657.427 2.91 1.27 3.724.814.787 2.038 1.183 3.638 1.183s2.82-.396 3.633-1.183c.844-.813 1.27-2.067 1.27-3.724 0-1.658-.426-2.911-1.27-3.725-.81-.786-2.033-1.183-3.63-1.183zm0 7.775a.41.41 0 110 .82.41.41 0 010-.82zm.003-6.48c.787 0 1.456.275 1.88.776.366.43.514.991.416 1.58-.13.796-.696 1.294-.938 1.509-.097.087-.205.171-.309.259-.302.245-.716.584-.716.8v.655a.337.337 0 01-.336.336.337.337 0 01-.336-.336v-.655c0-.538.51-.955.965-1.325.104-.084.201-.165.289-.238.205-.179.628-.555.72-1.113.063-.397-.028-.753-.266-1.035-.296-.35-.784-.542-1.369-.542-.497 0-.914.162-1.203.471-.276.29-.427.703-.427 1.16v.14a.337.337 0 01-.336.337.337.337 0 01-.336-.336v-.141c0-.629.215-1.207.608-1.62.42-.448 1.005-.683 1.694-.683z" fill="#5CB615" fill-rule="nonzero"/></svg>
